packages/icons/svg/24/Novels.svg

<svg width="24" height="24" viewBox="0 0 24 24" fill="none" xmlns="http://www.w3.org/2000/svg">
<path d="M7 13.5C7 13.2239 7.22386 13 7.5 13H16.5C16.7761 13 17 13.2239 17 13.5C17 13.7761 16.7761 14 16.5 14H7.5C7.22386 14 7 13.7761 7 13.5Z" fill="#858585"/>
<path d="M7.5 15C7.22386 15 7 15.2239 7 15.5C7 15.7761 7.22386 16 7.5 16H16.5C16.7761 16 17 15.7761 17 15.5C17 15.2239 16.7761 15 16.5 15H7.5Z" fill="#858585"/>
<path d="M7 11.5C7 11.2239 7.22386 11 7.5 11H11.5C11.7761 11 12 11.2239 12 11.5C12 11.7761 11.7761 12 11.5 12H7.5C7.22386 12 7 11.7761 7 11.5Z" fill="#858585"/>
<path d="M7.5 17C7.22386 17 7 17.2239 7 17.5C7 17.7761 7.22386 18 7.5 18H16.5C16.7761 18 17 17.7761 17 17.5C17 17.2239 16.7761 17 16.5 17H7.5Z" fill="#858585"/>
<path fill-rule="evenodd" clip-rule="evenodd" d="M17 3C18.6569 3 20 4.34315 20 6V18C20 19.6569 18.6569 21 17 21H7C5.34315 21 4 19.6569 4 18L4 6C4 4.34315 5.34315 3 7 3L17 3ZM18 6C18 5.44772 17.5523 5 17 5L7 5C6.44772 5 6 5.44772 6 6L6 18C6 18.5523 6.44771 19 7 19H17C17.5523 19 18 18.5523 18 18L18 6Z" fill="#858585"/>
</svg>

<svg width="24" height="24" fill="none" xmlns="http://www.w3.org/2000/svg" viewBox="0 0 24 24"><path d="M7 13.5a.5.5 0 01.5-.5h9a.5.5 0 010 1h-9a.5.5 0 01-.5-.5zM7.5 15a.5.5 0 000 1h9a.5.5 0 000-1h-9zM7 11.5a.5.5 0 01.5-.5h4a.5.5 0 010 1h-4a.5.5 0 01-.5-.5zM7.5 17a.5.5 0 000 1h9a.5.5 0 000-1h-9z" fill="currentColor"></path><path fill-rule="evenodd" clip-rule="evenodd" d="M17 3a3 3 0 013 3v12a3 3 0 01-3 3H7a3 3 0 01-3-3V6a3 3 0 013-3h10zm1 3a1 1 0 00-1-1H7a1 1 0 00-1 1v12a1 1 0 001 1h10a1 1 0 001-1V6z" fill="currentColor"></path></svg>
